Icons/Line/si_Dangerous.svg

<svg width="24" height="24" viewBox="0 0 24 24" fill="none" xmlns="http://www.w3.org/2000/svg">
<path d="M3.23 7.91273L7.91 3.23013C8.06 3.08004 8.26 3 8.48 3H15.53C15.74 3 15.95 3.08004 16.1 3.23013L20.77 7.90272C20.92 8.05281 21 8.25292 21 8.47304V15.527C21 15.7371 20.92 15.9472 20.77 16.0973L16.1 20.7699C15.95 20.92 15.75 21 15.53 21H8.47C8.26 21 8.05 20.92 7.9 20.7699L3.23 16.0973C3.08 15.9472 3 15.7471 3 15.527V8.47304C3 8.26292 3.08 8.05281 3.23 7.90272V7.91273Z" stroke="black" stroke-width="1.5" stroke-miterlimit="10"/>
<path d="M9 14.6569L14.6569 9" stroke="black" stroke-width="1.5" stroke-miterlimit="10" stroke-linecap="round"/>
<path d="M14.6569 14.6569L9 9" stroke="black" stroke-width="1.5" stroke-miterlimit="10" stroke-linecap="round"/>
</svg>

<svg width="24" height="24" fill="none" xmlns="http://www.w3.org/2000/svg"><path d="M3.23 7.913 7.91 3.23c.15-.15.35-.23.57-.23h7.05c.21 0 .42.08.57.23l4.67 4.673c.15.15.23.35.23.57v7.054c0 .21-.08.42-.23.57L16.1 20.77c-.15.15-.35.23-.57.23H8.47a.81.81 0 0 1-.57-.23l-4.67-4.673a.793.793 0 0 1-.23-.57V8.473c0-.21.08-.42.23-.57v.01Z" stroke="#000" stroke-width="1.5" stroke-miterlimit="10"/><path d="M9 14.657 14.657 9M14.657 14.657 9 9" stroke="#000" stroke-width="1.5" stroke-miterlimit="10" stroke-linecap="round"/></svg>
